svg/double_left.svg

<svg xmlns="http://www.w3.org/2000/svg" viewBox="0 0 32 32" enable-background="new 0 0 32 32"><path d="M 15.90625 4.78125 L 5.40625 15.28125 L 4.6875 16 L 5.40625 16.71875 L 15.90625 27.21875 L 17.3125 25.78125 L 7.53125 16 L 17.3125 6.21875 L 15.90625 4.78125 z M 22.90625 4.78125 L 12.40625 15.28125 L 11.6875 16 L 12.40625 16.71875 L 22.90625 27.21875 L 24.3125 25.78125 L 14.53125 16 L 24.3125 6.21875 L 22.90625 4.78125 z" color="#000" overflow="visible" enable-background="accumulate"/></svg>

<svg xmlns="http://www.w3.org/2000/svg" viewBox="0 0 32 32"><path d="M15.906 4.78l-10.5 10.5-.718.72.718.72 10.5 10.5 1.406-1.44L7.533 16l9.78-9.78-1.406-1.44zm7 0l-10.5 10.5-.72.72.72.72 10.5 10.5 1.407-1.44L14.53 16l9.783-9.78-1.407-1.44z"/></svg>
